Papirus-nordic/64x64/places/folder-nordic-git.svg

<svg xmlns="http://www.w3.org/2000/svg" width="64" height="64" version="1">
 <rect style="opacity:0.2" width="56" height="36" x="4" y="22" rx="2.8" ry="2.8"/>
 <path style="fill:#6c9b9a" d="M 4,46.2 C 4,47.751 5.2488,49 6.8,49 H 57.2 C 58.751,49 60,47.751 60,46.2 V 15.8 C 60,14.249 58.751,13 57.2,13 H 32 C 27.8,13 26.4,7 22.2,7 H 6.8 C 5.2488,7 4,8.2488 4,9.8"/>
 <rect style="opacity:0.2" width="56" height="36" x="4" y="20" rx="2.8" ry="2.8"/>
 <rect style="fill:#eceff4" width="48" height="22" x="8" y="16" rx="2.8" ry="2.8"/>
 <rect style="fill:#82abaa" width="56" height="36" x="4" y="21" rx="2.8" ry="2.8"/>
 <path style="opacity:0.1;fill:#ffffff" d="M 6.8008,7 C 5.2496,7 4,8.2496 4,9.8008 V 10.801 C 4,9.2496 5.2496,8 6.8008,8 H 22.199 C 26.399,8 27.8,14 32,14 H 57.199 C 58.75,14 60,15.25 60,16.801 V 15.801 C 60,14.25 58.75,13 57.199,13 H 32 C 27.8,13 26.399,7 22.199,7 Z"/>
 <path style="fill:#4e6766" d="M 26.412,28 24.998,29.414 27.302,31.718 A 2.9989,2.9989 0 0 0 27.005,33.007 2.9989,2.9989 0 0 0 29.005,35.83 V 44.178 A 2.9989,2.9989 0 0 0 27.007,47 2.9989,2.9989 0 0 0 30.006,49.999 2.9989,2.9989 0 0 0 33.005,47 2.9989,2.9989 0 0 0 31.005,44.177 V 35.829 A 2.9989,2.9989 0 0 0 31.294,35.708 L 35.3,39.713 A 2.9989,2.9989 0 0 0 35.004,41.002 2.9989,2.9989 0 0 0 38.003,44.001 2.9989,2.9989 0 0 0 41.001,41.002 2.9989,2.9989 0 0 0 38.003,38.004 2.9989,2.9989 0 0 0 36.714,38.3 L 32.708,34.295 A 2.9989,2.9989 0 0 0 33.005,33.006 2.9989,2.9989 0 0 0 30.006,30.007 2.9989,2.9989 0 0 0 28.717,30.304 L 26.414,28.002 Z"/>
</svg>

<svg xmlns="http://www.w3.org/2000/svg" width="64" height="64"><rect width="50" height="32" x="7" y="24" rx="2.5" ry="2.5" opacity=".2"/><path d="M7 44.5C7 45.885 8.115 47 9.5 47h45c1.385 0 2.5-1.115 2.5-2.5v-27c0-1.385-1.115-2.5-2.5-2.5H29v-2.5c0-1.385-1.115-2.5-2.5-2.5h-17A2.495 2.495 0 0 0 7 12.5" fill="#6c9b9a"/><rect width="50" height="32" x="7" y="22" rx="2.5" ry="2.5" opacity=".2"/><rect width="44" height="20" x="10" y="18" rx="2.5" ry="2.5" fill="#e4e4e4"/><rect width="50" height="32" x="7" y="23" rx="2.5" ry="2.5" fill="#82abaa"/><path d="M9.5 10A2.495 2.495 0 0 0 7 12.5v1C7 12.115 8.115 11 9.5 11h17c1.385 0 2.5 1.115 2.5 2.5v-1c0-1.385-1.115-2.5-2.5-2.5zM29 15v1h25.5c1.39 0 2.5 1.115 2.5 2.5v-1c0-1.385-1.11-2.5-2.5-2.5z" opacity=".1" fill="#fff"/><path d="M26.412 28l-1.414 1.414 2.304 2.304a2.999 2.999 0 0 0-.297 1.289 2.999 2.999 0 0 0 2 2.823v8.348A2.999 2.999 0 0 0 27.007 47a2.999 2.999 0 0 0 2.999 2.999A2.999 2.999 0 0 0 33.005 47a2.999 2.999 0 0 0-2-2.823v-8.348a2.999 2.999 0 0 0 .289-.121l4.006 4.005a2.999 2.999 0 0 0-.296 1.289 2.999 2.999 0 0 0 2.999 2.999 2.999 2.999 0 0 0 2.998-2.999 2.999 2.999 0 0 0-2.998-2.998 2.999 2.999 0 0 0-1.289.296l-4.006-4.005a2.999 2.999 0 0 0 .297-1.289 2.999 2.999 0 0 0-2.999-2.999 2.999 2.999 0 0 0-1.289.297l-2.303-2.302z" fill="#4e6766"/></svg>
